X: 67
T: White Cockade
K: G
M: 2/4
L: 1/16
Q: 1/8=120
|: (uGA) | "G" vB2B2 B2(AB) | d2B2 B2g2 | .d2(Bd) cBAG | "D" FGAB A2(GA) | "G" B2B2 B2(AG) |
B2d2 g3a | .b.a.g.f "C" .e.g.f.e | "G" d2B2B2 :][: uBc | vd2B2 g2B2 | d2B2 B2(Bc) |
d2B2 g2(fg) | "D" a2A2 A2(GA) | "G" B2B2 B2(AG) | B2d2 g3a | bagf "C" egfe | "G" dBB H :|

